!!! OTL: Berkowitz232
!!! Chapter: 1
!!! Section: II
!!! Page: 53
!!! Mode: 
!!! Encoder: DJB
**kern
*staff1
*I"Piano
=1-
*clefC3
*k[b-]
*d:
*M2/4
4dd\
8a\L
8a\J
=2
4g#\
4a\
=3
4dd\
8g\L
8g\J
=4
4f#\
4g\
=5
4dd\
4f\
=6
4dd\
4e\
=7
4b-\
8a\L
8g#\J
=8
2a\
=9
4g\
8f#\L
8f#\J
=10
4g\
4dd\
=11
4f\
8e\L
8e\J
=12
4f\
4dd\
=13
!!linebreak:original
4cc#\
4a\
=14
4b-\
4a\
=15
4g\
8f\L
8e\J
=16
4d\
4r
==
*-
